Yaru++/apps/scalable/gufw.svg

<svg height="256" viewBox="-54 0 191.99999 191.99999" width="256" xmlns="http://www.w3.org/2000/svg" xmlns:xlink="http://www.w3.org/1999/xlink">
  <filter id="filter2575" color-interpolation-filters="sRGB" height="1.021556" width="1.02707" x="-.013535" y="-.010778">
    <feGaussianBlur stdDeviation=".7679216"/>
  </filter>
  <filter id="filter2605" color-interpolation-filters="sRGB" height="1.086223" width="1.108278" x="-.054139" y="-.043111">
    <feGaussianBlur stdDeviation="3.0716864"/>
  </filter>
  <path d="m-24.6558 10.393879h130.18233c13.9856 115.586481-41.171973 162.234361-64.38557 170.999991-19.270745-8.70734-85.929141-45.7979-65.79676-170.999991z" fill="#181511" filter="url(#filter2605)" opacity=".1"/>
  <path d="m-24.6558 10.393879h130.18233c13.9856 115.586481-41.171973 162.234361-64.38557 170.999991-19.270745-8.70734-85.929141-45.7979-65.79676-170.999991z" fill="#181511" filter="url(#filter2575)" opacity=".1"/>
  <path d="m-24.6558 10.393879h130.18233c13.9856 115.586481-41.171973 162.234361-64.38557 170.999991-19.270745-8.70734-85.929141-45.7979-65.79676-170.999991z" fill="#0b0600" opacity=".1"/>
  <path d="m-23.226001 12.09808h127.742971c13.72354 113.42062-40.400491 159.19441-63.179111 167.79579-18.90965-8.54418-84.319-44.93974-64.56386-167.79579z" fill="#faf8f6"/>
  <g fill="#1561a8" fill-opacity=".811765" transform="matrix(.74999995743 0 0 .74999995743 -53.99999914229 .00000079643)">
    <path d="m53.054688 22.5625c-2.994317-.016507-8.230186 3.528014-8.072266 10.886719-1.502924 13.835991-1.626993 25.221219-2.214844 37.3125-.324842 10.208282.378506 21.212619 1.144531 32.093751.541008 6.59597 1.355863 12.48147 3.058594 18.11719.50363 1.3909.882368 2.81082 1.986328 3.96679 1.006501 1.00497 1.608658 1.80371 3.742188 1.68164.664879.03023 1.529226-.39094 2.617187-1.32226l97.449214-97.187502c1.95766-2.305777 3.69336-4.642021 0-5.222656zm151.152342 51.371094-120.308592 119.982426c-.791991 1.4281-2.496252 2.34396 1.412109 6.41601 16.157223 16.90456 26.236513 22.66656 37.427733 30.4668 3.62852 1.66365 6.44082.87833 9.16016-.18555 53.31889-32.20209 65.90019-90.18995 73.23633-127.59961 2.06146-14.623723 1.07152-17.127597 1.20312-20.312498.11113-2.620613-.01605-8.236485-2.13086-8.767578z" fill="#1561a8" fill-opacity=".811765"/>
    <path d="m53.054688 22.5625c-2.994317-.016507-8.230186 3.528014-8.072266 10.886719-1.502924 13.835991-1.626993 25.221219-2.214844 37.3125-.058959 1.85282-.075276 3.738899-.072266 5.638672.011317-1.222419.034021-2.436822.072266-3.638672.587851-12.09128.71192-23.476509 2.214844-37.3125-.15792-7.358705 5.077949-10.903221 8.072266-10.886719l99.710932.326172c.91571.143958 1.49661.395943 1.82422.728516.67193-1.306091.49399-2.36407-1.82422-2.728516zm151.152342 51.371094-120.308592 119.982426c-.538979.97187-1.496735 1.70967-.824219 3.36328.226136-.48165.566905-.8993.824219-1.36328l120.308592-119.982426c1.58229.397286 2.05097 3.639981 2.14063 6.345703.08044-2.750047-.12652-7.839899-2.14063-8.345703zm2.14063 10.347656c-.00402.136806-.0045.295713-.00977.419922-.0525 1.270599.06983 2.467376.10938 4.333984.03676-2.157705-.05505-3.56276-.09961-4.753906z" fill="#fff" fill-opacity=".990476" opacity=".3"/>
    <path d="m154.58984 23.617188c-.39858.774769-1.09532 1.635627-1.82422 2.49414l-97.449214 97.187502c-1.087961.93132-1.952308 1.3525-2.617187 1.32226-2.13353.12207-2.735687-.67667-3.742188-1.68164-1.10396-1.15597-1.482698-2.57589-1.986328-3.96679-1.702731-5.63572-2.517586-11.52122-3.058594-18.11719-.62699-8.906188-1.20322-17.887882-1.216797-26.455079-.084804 9.160565.540959 18.855013 1.216797 28.455079.541008 6.59597 1.355863 12.48147 3.058594 18.11719.50363 1.3909.882368 2.81082 1.986328 3.96679 1.006501 1.00497 1.608658 1.80371 3.742188 1.68164.664879.03023 1.529226-.39094 2.617187-1.32226l97.449214-97.187502c1.4723-1.734101 2.81798-3.485326 1.82422-4.49414zm51.75782 56.662109c-.00403.137497-.00447.297089-.00977.421875-.02152.520835-.01045 1.039685.00977 1.580078.0173-.590401.02454-1.26211 0-2.001953zm.09961 6.755859c-.04856 2.849337-.33124 7.017552-1.3125 13.978514-7.33614 37.40966-19.91744 95.39752-73.23633 127.59961-2.71934 1.06388-5.53164 1.8492-9.16016.18555-11.19122-7.80024-21.27051-13.56224-37.427733-30.4668-1.24858-1.30087-1.92063-2.27648-2.236328-3.05273-.469896 1.00083-.402232 2.30366 2.236328 5.05273 16.157223 16.90456 26.236513 22.66656 37.427733 30.4668 3.62852 1.66365 6.44082.87833 9.16016-.18555 53.31889-32.20209 65.90019-90.18995 73.23633-127.59961 1.23905-8.789664 1.37207-13.166258 1.3125-15.978514z" fill="#000" fill-opacity="1" opacity=".2"/>
  </g>
  <g transform="matrix(.74999996 0 0 .74999996 -54 0)">
    <path d="m41.03125 16.130859c-3.389775 21.08081-4.885975 40.239083-4.888672 57.667969.114002-16.890452 1.628611-35.393842 4.888672-55.667969h170.32422c1.95918 16.191973 2.87451 31.341795 2.92187 45.515625.03652-14.745813-.8702-30.55919-2.92187-47.515625z" fill="#fff" opacity=".3"/>
    <path d="m214.27734 61.646484c-.28916 116.766056-60.19407 166.030296-87.16015 176.212896-21.96817-9.92615-90.992874-48.05857-90.974612-166.060552-.807095 119.578672 68.882272 158.078292 90.974612 168.060552 27.11961-10.24058 87.55516-60.00799 87.16015-178.212896z" fill="#030100" opacity=".2"/>
  </g>
</svg>

<?xml version="1.0" encoding="UTF-8" standalone="no"?>
<svg
   xmlns:dc="http://purl.org/dc/elements/1.1/"
   xmlns:cc="http://creativecommons.org/ns#"
   xmlns:rdf="http://www.w3.org/1999/02/22-rdf-syntax-ns#"
   xmlns:svg="http://www.w3.org/2000/svg"
   xmlns="http://www.w3.org/2000/svg"
   xmlns:xlink="http://www.w3.org/1999/xlink"
   xmlns:sodipodi="http://sodipodi.sourceforge.net/DTD/sodipodi-0.dtd"
   xmlns:inkscape="http://www.inkscape.org/namespaces/inkscape"
   height="256"
   viewBox="-54 0 191.99999 191.99999"
   width="256"
   version="1.1"
   id="svg34"
   sodipodi:docname="gufw.svg"
   inkscape:version="0.92.3 (2405546, 2018-03-11)">
  <metadata
     id="metadata40">
    <rdf:RDF>
      <cc:Work
         rdf:about="">
        <dc:format>image/svg+xml</dc:format>
        <dc:type
           rdf:resource="http://purl.org/dc/dcmitype/StillImage" />
        <dc:title></dc:title>
      </cc:Work>
    </rdf:RDF>
  </metadata>
  <defs
     id="defs38">
    <filter
       style="color-interpolation-filters:sRGB"
       id="filter5415"
       width="1.1289999"
       height="1.076"
       x="-0.07"
       y="-0.039999999">
      <feGaussianBlur
         id="feGaussianBlur41"
         stdDeviation="2.813" />
    </filter>
    <linearGradient
       id="linearGradient1674"
       x1="285"
       x2="301"
       y1="102"
       y2="102"
       gradientUnits="userSpaceOnUse"
       xlink:href="#linearGradient1672" />
    <linearGradient
       id="linearGradient1672">
      <stop
         style="stop-color:#e7e7e7"
         id="stop7"
         offset="0" />
      <stop
         style="stop-color:#ffffff"
         id="stop9"
         offset="1" />
    </linearGradient>
    <linearGradient
       id="linearGradient1665"
       x1="-223.246"
       x2="-207.24699"
       y1="206.87399"
       y2="206.87399"
       gradientUnits="userSpaceOnUse"
       xlink:href="#linearGradient1663" />
    <linearGradient
       id="linearGradient1663">
      <stop
         style="stop-color:#3b3b3b"
         id="stop12"
         offset="0" />
      <stop
         style="stop-color:#4f4f4f"
         id="stop14"
         offset="1" />
    </linearGradient>
    <linearGradient
       id="linearGradient5511-3">
      <stop
         id="stop5547-9"
         offset="0"
         style="stop-color:#000065;stop-opacity:1;" />
      <stop
         style="stop-color:#000072;stop-opacity:0.74901961;"
         offset="0.25"
         id="stop5580-5" />
      <stop
         style="stop-color:#00007f;stop-opacity:0.49803922;"
         offset="0.5"
         id="stop5578-8" />
      <stop
         style="stop-color:#000000;stop-opacity:0;"
         offset="1"
         id="stop5515-3" />
    </linearGradient>
    <linearGradient
       id="linearGradient5602-4">
      <stop
         style="stop-color:#000065;stop-opacity:1;"
         offset="0"
         id="stop5604-6" />
      <stop
         id="stop5606-2"
         offset="0.31062979"
         style="stop-color:#000072;stop-opacity:0.74901961;" />
      <stop
         id="stop5608-4"
         offset="0.65142864"
         style="stop-color:#00007f;stop-opacity:0.49803922;" />
      <stop
         id="stop5610-1"
         offset="1"
         style="stop-color:#000000;stop-opacity:0;" />
    </linearGradient>
    <linearGradient
       id="linearGradient5934">
      <stop
         id="stop5936"
         offset="0"
         style="stop-color:#000065;stop-opacity:1;" />
      <stop
         style="stop-color:#000072;stop-opacity:0.74901961;"
         offset="0.36316368"
         id="stop5938" />
      <stop
         style="stop-color:#00007f;stop-opacity:0.49803922;"
         offset="0.61747867"
         id="stop5940" />
      <stop
         style="stop-color:#000000;stop-opacity:0;"
         offset="1"
         id="stop5942" />
    </linearGradient>
    <filter
       inkscape:collect="always"
       style="color-interpolation-filters:sRGB"
       id="filter2575"
       x="-0.013534774"
       width="1.0270695"
       y="-0.010777848"
       height="1.0215557">
      <feGaussianBlur
         inkscape:collect="always"
         stdDeviation="0.7679216"
         id="feGaussianBlur2577" />
    </filter>
    <filter
       inkscape:collect="always"
       style="color-interpolation-filters:sRGB"
       id="filter2605"
       x="-0.054139094"
       width="1.1082782"
       y="-0.043111391"
       height="1.0862228">
      <feGaussianBlur
         inkscape:collect="always"
         stdDeviation="3.0716864"
         id="feGaussianBlur2607" />
    </filter>
  </defs>
  <sodipodi:namedview
     pagecolor="#ffffff"
     bordercolor="#666666"
     borderopacity="1"
     objecttolerance="10"
     gridtolerance="10"
     guidetolerance="10"
     inkscape:pageopacity="0"
     inkscape:pageshadow="2"
     inkscape:window-width="1920"
     inkscape:window-height="1009"
     id="namedview36"
     showgrid="true"
     units="px"
     inkscape:zoom="3.6622807"
     inkscape:cx="124.90948"
     inkscape:cy="117.21934"
     inkscape:window-x="0"
     inkscape:window-y="34"
     inkscape:window-maximized="1"
     inkscape:current-layer="svg34" />
  <path
     sodipodi:nodetypes="cccc"
     inkscape:connector-curvature="0"
     id="path2579"
     d="M -24.6558,10.393879 H 105.52653 C 119.51213,125.98036 64.354557,172.62824 41.14096,181.39387 21.870215,172.68653 -44.788181,135.59597 -24.6558,10.393879 Z"
     style="fill:#181511;fill-opacity:1;stroke:none;stroke-width:0.19992277;stroke-linecap:butt;stroke-linejoin:miter;stroke-miterlimit:4;stroke-dasharray:none;stroke-opacity:1;opacity:0.1;filter:url(#filter2605)" />
  <path
     style="fill:#181511;fill-opacity:1;stroke:none;stroke-width:0.19992277;stroke-linecap:butt;stroke-linejoin:miter;stroke-miterlimit:4;stroke-dasharray:none;stroke-opacity:1;opacity:0.1;filter:url(#filter2575)"
     d="M -24.6558,10.393879 H 105.52653 C 119.51213,125.98036 64.354557,172.62824 41.14096,181.39387 21.870215,172.68653 -44.788181,135.59597 -24.6558,10.393879 Z"
     id="path2569"
     inkscape:connector-curvature="0"
     sodipodi:nodetypes="cccc" />
  <path
     sodipodi:nodetypes="cccc"
     inkscape:connector-curvature="0"
     id="path2567"
     d="M -24.6558,10.393879 H 105.52653 C 119.51213,125.98036 64.354557,172.62824 41.14096,181.39387 21.870215,172.68653 -44.788181,135.59597 -24.6558,10.393879 Z"
     style="fill:#0b0600;fill-opacity:1;stroke:none;stroke-width:0.19992277;stroke-linecap:butt;stroke-linejoin:miter;stroke-miterlimit:4;stroke-dasharray:none;stroke-opacity:1;opacity:0.1" />
  <path
     style="fill:#faf8f6;fill-opacity:1;stroke:none;stroke-width:0.19617662;stroke-linecap:butt;stroke-linejoin:miter;stroke-miterlimit:4;stroke-dasharray:none;stroke-opacity:1"
     d="M -23.226001,12.09808 H 104.51697 c 13.72354,113.42062 -40.400491,159.19441 -63.179111,167.79579 -18.90965,-8.54418 -84.319,-44.93974 -64.56386,-167.79579 z"
     id="path3793"
     inkscape:connector-curvature="0"
     sodipodi:nodetypes="cccc" />
  <g
     transform="matrix(1.9583292,0,0,1.9583292,-125.09633,29.890467)"
     id="g5538"
     style="fill:#1561a8;fill-opacity:0.81176472;stroke:none">
    <g
       id="g5561"
       style="fill:#1561a8;fill-opacity:0.81176472;stroke:none">
      <path
         style="fill:#1561a8;fill-opacity:0.81176471;stroke:none;stroke-width:0.26111057;stroke-linecap:butt;stroke-linejoin:miter;stroke-miterlimit:4;stroke-dasharray:none;stroke-opacity:1"
         d="M 53.054688 22.5625 C 50.060371 22.545993 44.824502 26.090514 44.982422 33.449219 C 43.479498 47.28521 43.355429 58.670438 42.767578 70.761719 C 42.442736 80.970001 43.146084 91.974338 43.912109 102.85547 C 44.453117 109.45144 45.267972 115.33694 46.970703 120.97266 C 47.474333 122.36356 47.853071 123.78348 48.957031 124.93945 C 49.963532 125.94442 50.565689 126.74316 52.699219 126.62109 C 53.364098 126.65132 54.228445 126.23015 55.316406 125.29883 L 152.76562 28.111328 C 154.72328 25.805551 156.45898 23.469307 152.76562 22.888672 L 53.054688 22.5625 z M 204.20703 73.933594 L 83.898438 193.91602 C 83.106447 195.34412 81.402186 196.25998 85.310547 200.33203 C 101.46777 217.23659 111.54706 222.99859 122.73828 230.79883 C 126.3668 232.46248 129.1791 231.67716 131.89844 230.61328 C 185.21733 198.41119 197.79863 140.42333 205.13477 103.01367 C 207.19623 88.389947 206.20629 85.886073 206.33789 82.701172 C 206.44902 80.080559 206.32184 74.464687 204.20703 73.933594 z "
         id="path3770"
         transform="matrix(0.38297951,0,0,0.38297951,36.304586,-15.263249)" />
      <path
         style="fill:#ffffff;fill-opacity:0.99047619;stroke:none;stroke-width:0.26111057;stroke-linecap:butt;stroke-linejoin:miter;stroke-miterlimit:4;stroke-dasharray:none;stroke-opacity:1;opacity:0.3"
         d="M 53.054688 22.5625 C 50.060371 22.545993 44.824502 26.090514 44.982422 33.449219 C 43.479498 47.28521 43.355429 58.670438 42.767578 70.761719 C 42.708619 72.614539 42.692302 74.500618 42.695312 76.400391 C 42.706629 75.177972 42.729333 73.963569 42.767578 72.761719 C 43.355429 60.670439 43.479498 49.28521 44.982422 35.449219 C 44.824502 28.090514 50.060371 24.545998 53.054688 24.5625 L 152.76562 24.888672 C 153.68133 25.03263 154.26223 25.284615 154.58984 25.617188 C 155.26177 24.311097 155.08383 23.253118 152.76562 22.888672 L 53.054688 22.5625 z M 204.20703 73.933594 L 83.898438 193.91602 C 83.359459 194.88789 82.401703 195.62569 83.074219 197.2793 C 83.300355 196.79765 83.641124 196.38 83.898438 195.91602 L 204.20703 75.933594 C 205.78932 76.33088 206.258 79.573575 206.34766 82.279297 C 206.4281 79.52925 206.22114 74.439398 204.20703 73.933594 z M 206.34766 84.28125 C 206.34364 84.418056 206.34316 84.576963 206.33789 84.701172 C 206.28539 85.971771 206.40772 87.168548 206.44727 89.035156 C 206.48403 86.877451 206.39222 85.472396 206.34766 84.28125 z "
         transform="matrix(0.38297951,0,0,0.38297951,36.304586,-15.263249)"
         id="path2557" />
      <path
         style="fill:#000000;fill-opacity:1;stroke:none;stroke-width:0.26111057;stroke-linecap:butt;stroke-linejoin:miter;stroke-miterlimit:4;stroke-dasharray:none;stroke-opacity:1;opacity:0.2"
         d="M 154.58984 23.617188 C 154.19126 24.391957 153.49452 25.252815 152.76562 26.111328 L 55.316406 123.29883 C 54.228445 124.23015 53.364098 124.65133 52.699219 124.62109 C 50.565689 124.74316 49.963532 123.94442 48.957031 122.93945 C 47.853071 121.78348 47.474333 120.36356 46.970703 118.97266 C 45.267972 113.33694 44.453117 107.45144 43.912109 100.85547 C 43.285119 91.949282 42.708889 82.967588 42.695312 74.400391 C 42.610508 83.560956 43.236271 93.255404 43.912109 102.85547 C 44.453117 109.45144 45.267972 115.33694 46.970703 120.97266 C 47.474333 122.36356 47.853071 123.78348 48.957031 124.93945 C 49.963532 125.94442 50.565689 126.74316 52.699219 126.62109 C 53.364098 126.65132 54.228445 126.23015 55.316406 125.29883 L 152.76562 28.111328 C 154.23792 26.377227 155.5836 24.626002 154.58984 23.617188 z M 206.34766 80.279297 C 206.34363 80.416794 206.34319 80.576386 206.33789 80.701172 C 206.31637 81.222007 206.32744 81.740857 206.34766 82.28125 C 206.36496 81.690849 206.3722 81.01914 206.34766 80.279297 z M 206.44727 87.035156 C 206.39871 89.884493 206.11603 94.052708 205.13477 101.01367 C 197.79863 138.42333 185.21733 196.41119 131.89844 228.61328 C 129.1791 229.67716 126.3668 230.46248 122.73828 228.79883 C 111.54706 220.99859 101.46777 215.23659 85.310547 198.33203 C 84.061967 197.03116 83.389917 196.05555 83.074219 195.2793 C 82.604323 196.28013 82.671987 197.58296 85.310547 200.33203 C 101.46777 217.23659 111.54706 222.99859 122.73828 230.79883 C 126.3668 232.46248 129.1791 231.67716 131.89844 230.61328 C 185.21733 198.41119 197.79863 140.42333 205.13477 103.01367 C 206.37382 94.224006 206.50684 89.847412 206.44727 87.035156 z "
         transform="matrix(0.38297951,0,0,0.38297951,36.304586,-15.263249)"
         id="path2562" />
    </g>
  </g>
  <path
     style="fill:#ffffff;fill-opacity:1;stroke:none;stroke-width:0.26156884;stroke-linecap:butt;stroke-linejoin:miter;stroke-miterlimit:4;stroke-dasharray:none;stroke-opacity:1;opacity:0.3"
     d="M 41.03125 16.130859 C 37.641475 37.211669 36.145275 56.369942 36.142578 73.798828 C 36.25658 56.908376 37.771189 38.404986 41.03125 18.130859 L 211.35547 18.130859 C 213.31465 34.322832 214.22998 49.472654 214.27734 63.646484 C 214.31386 48.900671 213.40714 33.087294 211.35547 16.130859 L 41.03125 16.130859 z "
     transform="matrix(0.74999996,0,0,0.74999996,-54,0)"
     id="path2546" />
  <path
     style="fill:#030100;fill-opacity:1;stroke:none;stroke-width:0.26156884;stroke-linecap:butt;stroke-linejoin:miter;stroke-miterlimit:4;stroke-dasharray:none;stroke-opacity:1;opacity:0.2"
     d="M 214.27734 61.646484 C 213.98818 178.41254 154.08327 227.67678 127.11719 237.85938 C 105.14902 227.93323 36.124316 189.80081 36.142578 71.798828 C 35.335483 191.3775 105.02485 229.87712 127.11719 239.85938 C 154.2368 229.6188 214.67235 179.85139 214.27734 61.646484 z "
     transform="matrix(0.74999996,0,0,0.74999996,-54,0)"
     id="path2551" />
</svg>
